public/img/decorations/deco-ring-2.svg

<svg width="134" height="201" viewBox="0 0 134 201" fill="none" xmlns="http://www.w3.org/2000/svg">
<path d="M19.0311 0.187012C26.8611 0.808012 34.6931 1.42599 42.5231 2.04999C49.7321 2.62399 56.9391 3.22502 64.1501 3.77802C74.2241 4.55002 84.2811 5.341 94.1581 7.495C101.607 9.12 108.681 11.531 115.408 14.793C119.041 16.555 121.724 19.175 123.398 22.575C126.9 29.69 129.611 37.051 131.277 44.684C131.923 47.641 132.125 50.69 132.326 53.707C132.656 58.628 132.82 63.557 133.055 68.483C133.076 68.931 133.17 69.387 133.119 69.829C131.922 80.168 134.004 90.445 133.836 100.764C133.738 106.83 133.576 112.898 133.553 118.965C133.539 122.334 133.877 125.704 133.834 129.071C133.785 132.772 133.469 136.47 133.289 140.17C133.223 141.517 133.088 142.875 133.203 144.212C134.273 156.666 132.223 168.842 129.215 180.932C127.572 187.536 123.686 192.957 117.936 197.225C116.469 198.314 114.446 199.075 112.557 199.379C106.391 200.374 100.186 200.625 93.9141 199.842C86.9941 198.977 80.0231 198.451 73.0801 197.731C64.3811 196.827 55.8261 195.266 47.4001 193.116C37.3771 190.558 27.8061 187.017 18.8571 182.231C11.6131 178.355 7.67906 172.518 6.92906 164.901C6.45406 160.101 5.59306 155.333 5.10106 150.534C4.80406 147.64 4.95506 144.711 4.75906 141.805C4.66306 140.368 4.19307 138.955 3.98807 137.52C3.86507 136.663 3.78706 135.763 3.93706 134.919C4.37306 132.467 4.69306 130.042 4.16206 127.555C3.92806 126.466 4.08605 125.313 4.02505 124.191C3.56805 115.67 3.11106 107.149 2.63006 98.629C2.37606 94.145 2.10706 89.66 1.77806 85.179C1.54206 81.933 1.05505 78.697 0.928053 75.448C0.633053 67.815 0.391064 60.178 0.311064 52.542C0.260064 47.715 0.647065 42.886 0.643065 38.058C0.639065 33.005 0.22906 27.95 0.31906 22.9C0.40706 18.065 1.10206 13.271 2.88006 8.64801C5.29406 2.37001 8.19106 0.467985 15.6341 0.415985C16.7591 0.406985 17.8841 0.414001 19.0091 0.414001C19.0161 0.337001 19.0231 0.262012 19.0311 0.187012ZM2.56405 47.289C2.58205 47.289 2.59706 47.289 2.61506 47.289C2.61506 54.711 2.60906 62.132 2.62106 69.553C2.62306 70.676 2.59806 71.815 2.78106 72.919C4.98406 86.164 4.96305 99.565 6.19105 112.879C7.07805 122.492 7.03506 132.187 7.08206 141.846C7.11906 149.411 8.04306 156.865 9.29106 164.319C10.5511 171.842 14.8871 177.56 22.0591 181.311C26.7891 183.785 31.8711 185.778 36.9571 187.629C46.9691 191.274 57.4921 193.287 68.1171 194.818C72.1721 195.403 76.3141 195.48 80.3961 195.944C89.7921 197.011 99.1191 198.554 108.697 197.552C113.316 197.069 116.955 195.597 119.98 192.367C123.98 188.095 126.248 183.149 127.394 177.813C129.505 167.986 130.853 158.064 130.783 148.022C130.752 143.525 130.906 139.024 130.781 134.53C130.343 118.696 131.5 102.851 129.836 87.015C129.016 79.215 129.322 71.315 129.246 63.459C129.221 60.885 129.687 58.31 129.766 55.73C129.83 53.607 129.873 51.45 129.543 49.356C128.307 41.527 125.631 34.065 122.475 26.693C120.381 21.806 117.037 18.245 111.858 15.902C100.87 10.932 89.1671 8.376 77.0041 7.311C69.6761 6.67 62.3441 6.07398 55.0101 5.47198C48.2991 4.91998 41.5881 4.36899 34.8751 3.85599C30.6461 3.53199 26.4141 3.193 22.1781 3.021C19.3321 2.906 16.4711 3.018 13.6211 3.125C9.82006 3.27 7.40006 5.27101 5.87106 8.20001C5.13506 9.61201 4.44705 11.127 4.21505 12.654C3.53505 17.098 2.79705 21.563 2.63505 26.036C2.37505 33.115 2.56405 40.205 2.56405 47.289Z" fill="black"/>
</svg>

<svg width="134" height="201" fill="none" xmlns="http://www.w3.org/2000/svg"><path d="M19.031.187c7.83.621 15.662 1.239 23.492 1.863 7.21.574 14.416 1.175 21.627 1.728 10.074.772 20.131 1.563 30.008 3.717 7.449 1.625 14.523 4.036 21.25 7.298 3.633 1.762 6.316 4.382 7.99 7.782 3.502 7.115 6.213 14.476 7.879 22.109.646 2.957.848 6.006 1.049 9.023.33 4.921.494 9.85.729 14.776.021.448.115.904.064 1.346-1.197 10.339.885 20.616.717 30.935-.098 6.066-.26 12.134-.283 18.201-.014 3.369.324 6.739.281 10.106-.049 3.701-.365 7.399-.545 11.099-.066 1.347-.201 2.705-.086 4.042 1.07 12.454-.98 24.63-3.988 36.72-1.643 6.604-5.529 12.025-11.279 16.293-1.467 1.089-3.49 1.85-5.379 2.154-6.166.995-12.371 1.246-18.643.463-6.92-.865-13.89-1.391-20.834-2.111-8.699-.904-17.254-2.465-25.68-4.615-10.023-2.558-19.594-6.099-28.543-10.885-7.244-3.876-11.178-9.713-11.928-17.33-.475-4.8-1.336-9.568-1.828-14.367-.297-2.894-.146-5.823-.342-8.729-.096-1.437-.566-2.85-.77-4.285-.124-.857-.202-1.757-.052-2.601.436-2.452.756-4.877.225-7.364-.234-1.089-.076-2.242-.137-3.364-.457-8.521-.914-17.042-1.395-25.562a806.825 806.825 0 00-.852-13.45c-.236-3.246-.723-6.482-.85-9.731-.295-7.633-.537-15.27-.617-22.906-.05-4.827.336-9.656.332-14.484C.64 33.005.23 27.95.32 22.9c.088-4.835.783-9.629 2.561-14.252C5.294 2.37 8.191.468 15.634.416 16.76.407 17.884.414 19.01.414l.022-.227zM2.564 47.289h.051c0 7.422-.006 14.843.006 22.264.002 1.123-.023 2.262.16 3.366 2.203 13.245 2.182 26.646 3.41 39.96.887 9.613.844 19.308.891 28.967.037 7.565.961 15.019 2.21 22.473 1.26 7.523 5.595 13.241 12.767 16.992 4.73 2.474 9.812 4.467 14.898 6.318 10.012 3.645 20.535 5.658 31.16 7.189 4.055.585 8.197.662 12.28 1.126 9.395 1.067 18.722 2.61 28.3 1.608 4.619-.483 8.258-1.955 11.283-5.185 4-4.272 6.268-9.218 7.414-14.554 2.111-9.827 3.459-19.749 3.389-29.791-.031-4.497.123-8.998-.002-13.492-.438-15.834.719-31.679-.945-47.515-.82-7.8-.514-15.7-.59-23.556-.025-2.574.441-5.149.52-7.729.064-2.123.107-4.28-.223-6.374-1.236-7.829-3.912-15.291-7.068-22.663-2.094-4.887-5.438-8.448-10.617-10.791-10.988-4.97-22.69-7.526-34.854-8.591-7.328-.641-14.66-1.237-21.994-1.839a3484.313 3484.313 0 00-20.135-1.616c-4.229-.324-8.46-.663-12.697-.835-2.846-.115-5.707-.003-8.557.104-3.8.145-6.22 2.146-7.75 5.075-.736 1.412-1.424 2.927-1.656 4.454-.68 4.444-1.418 8.909-1.58 13.382-.26 7.079-.07 14.169-.07 21.253z" fill="#000"/></svg>
